svg/lightbulb_multiple_off.svg

<svg xmlns="http://www.w3.org/2000/svg" viewBox="0 0 24 24"><path d="m20.84 22.73-4.1-4.1c-.19.22-.45.37-.74.37h-4c-.58 0-1-.45-1-1v-2a4.92 4.92 0 0 1-1.9-5L7.5 9.39c-.33.81-.53 1.69-.5 2.61-.03.68.07 1.35.28 2H7c-.58 0-1-.45-1-1v-2c-.7-.5-1.23-1.19-1.57-1.96A5 5 0 0 1 4.12 6L1.11 3l1.28-1.27 19.72 19.73zM13.58 5C12.46 2.47 9.5 1.33 7 2.45c-.32.13-.61.3-.87.48l3.54 3.54A7 7 0 0 1 13.58 5m4.48 9.86C19.6 12.66 19.14 9.62 17 8a5.03 5.03 0 0 0-5.88-.08zM12 21c0 .55.42 1 1 1h2c.53 0 1-.45 1-1v-1h-4zm-5-6v1c0 .55.42 1 1 1h1v-.12c-.57-.55-1-1.18-1.34-1.88z"/></svg>

<?xml version="1.0" encoding="UTF-8"?><!DOCTYPE svg PUBLIC "-//W3C//DTD SVG 1.1//EN" "http://www.w3.org/Graphics/SVG/1.1/DTD/svg11.dtd"><svg xmlns="http://www.w3.org/2000/svg" xmlns:xlink="http://www.w3.org/1999/xlink" version="1.1" id="mdi-lightbulb-multiple-off" width="24" height="24" viewBox="0 0 24 24"><path d="M20.84 22.73L16.74 18.63C16.55 18.85 16.29 19 16 19H12C11.42 19 11 18.55 11 18V16C9.37 14.8 8.71 12.82 9.1 11L7.5 9.39C7.17 10.2 6.97 11.08 7 12C6.97 12.68 7.07 13.35 7.28 14H7C6.42 14 6 13.55 6 13V11C5.3 10.5 4.77 9.81 4.43 9.04C4 8.05 3.91 7 4.12 6L1.11 3L2.39 1.73L22.11 21.46L20.84 22.73M13.58 5C12.46 2.47 9.5 1.33 7 2.45C6.68 2.58 6.39 2.75 6.13 2.93L9.67 6.47C10.76 5.63 12.1 5.08 13.58 5M18.06 14.86C19.6 12.66 19.14 9.62 17 8C15.2 6.67 12.84 6.72 11.12 7.92L18.06 14.86M12 21C12 21.55 12.42 22 13 22H15C15.53 22 16 21.55 16 21V20H12V21M7 15V16C7 16.55 7.42 17 8 17H9V16.88C8.43 16.33 8 15.7 7.66 15H7Z" /></svg>
